X: 042	% 6
T: Rakes Of The Mallow
S: Viola Ruth "Pioneer Western Folk Tunes" 1948 p.4 #2
R: reel
Z: 2019 John Chambers <jc:trillian.mit.edu>
M: 2/4
L: 1/16
K: G
V: 1 name=6
(3(DEF) |\
"^^"G2B2"^^"G2B2 | "^^"G2B2 "^^"cBAG |\
"^^"F2"^^"A2"^^"F2"^^"A2 | F2A2 (cBAF) |\
G2B2G2B2 | GABc d4 |\
cBAG FGAB | G2z2 G2 :|
|: z2 |\
g2fe d2c2 | B2c2 d4 |\
g2fe d2c2 | B2c2 A4 |\
g2fe d2c2 | B2c2 d4 |\
cBAG FGAB | G4 G2 :|
